X: 3
T:-Girl Who Broke My Heart, The
M:4/4
L:1/8
Q:180
R:March
K:G
ec|BGFD EC {D}(3CB,C|DG{A}GF GABc|defd cAGF|DE=FE {F/2G/2}F2 dc|!
BGFD EC {D}(3CB,C|DG{A}GF GABc|defd cAGF|DG{A}GF G2::!
DF|"G"G2 Bd gdBG|"F"(3=FFF Ac =fcAF|"G"G2 Bd gdBd|"D7"c{d}c{B}cd cAFA|!
"G"G2 Bd gdBG|"F"(3=F{G}F{E}F Ac =fcdc|"D7(G)"GA"(Am)"Bc cA"(D)"GF|"G"DG
"(D)"{A}GF "G"G2:|
